app/images/heart.svg

<svg width="30" height="28" viewBox="0 0 30 28" fill="none" xmlns="http://www.w3.org/2000/svg">
<path d="M15 27.6887C14.5729 27.6887 14.1611 27.5339 13.8403 27.2529C12.6283 26.1931 11.4599 25.1973 10.429 24.3188L10.4237 24.3143C7.40135 21.7386 4.79141 19.5144 2.97546 17.3233C0.945511 14.8738 0 12.5513 0 10.0142C0 7.54912 0.845261 5.27495 2.37991 3.61029C3.93288 1.92595 6.06377 0.998291 8.38074 0.998291C10.1125 0.998291 11.6984 1.54578 13.0943 2.62541C13.7988 3.17038 14.4374 3.83734 15 4.61531C15.5628 3.83734 16.2012 3.17038 16.9059 2.62541C18.3018 1.54578 19.8878 0.998291 21.6195 0.998291C23.9362 0.998291 26.0674 1.92595 27.6203 3.61029C29.155 5.27495 30 7.54912 30 10.0142C30 12.5513 29.0547 14.8738 27.0248 17.3231C25.2088 19.5144 22.5991 21.7384 19.5772 24.3138C18.5445 25.1936 17.3742 26.1911 16.1595 27.2533C15.8389 27.5339 15.4269 27.6887 15 27.6887ZM8.38074 2.75565C6.56044 2.75565 4.88823 3.48212 3.67172 4.80139C2.43713 6.14058 1.75713 7.99178 1.75713 10.0142C1.75713 12.148 2.5502 14.0565 4.32838 16.202C6.04706 18.2759 8.60344 20.4544 11.5633 22.9769L11.5688 22.9815C12.6036 23.8634 13.7766 24.8631 14.9975 25.9306C16.2257 24.8611 17.4005 23.8597 18.4373 22.9764C21.397 20.4539 23.9532 18.2759 25.6718 16.202C27.4498 14.0565 28.2429 12.148 28.2429 10.0142C28.2429 7.99178 27.5629 6.14058 26.3283 4.80139C25.112 3.48212 23.4396 2.75565 21.6195 2.75565C20.286 2.75565 19.0617 3.17953 17.9807 4.01541C17.0174 4.76065 16.3463 5.70273 15.9528 6.36191C15.7505 6.70088 15.3944 6.90321 15 6.90321C14.6056 6.90321 14.2495 6.70088 14.0472 6.36191C13.6539 5.70273 12.9829 4.76065 12.0193 4.01541C10.9383 3.17953 9.71397 2.75565 8.38074 2.75565Z" fill="#979797"/>
</svg>

<svg width="30" height="28" fill="none" xmlns="http://www.w3.org/2000/svg"><path d="M15 27.689a1.76 1.76 0 0 1-1.16-.436 347.99 347.99 0 0 0-3.411-2.934l-.005-.005c-3.023-2.575-5.633-4.8-7.449-6.99C.945 14.873 0 12.55 0 10.013 0 7.55.845 5.275 2.38 3.61 3.933 1.926 6.064.998 8.38.998c1.732 0 3.318.548 4.714 1.627A9.644 9.644 0 0 1 15 4.615a9.645 9.645 0 0 1 1.906-1.99c1.396-1.08 2.982-1.627 4.713-1.627 2.317 0 4.448.928 6.001 2.612C29.155 5.275 30 7.55 30 10.014c0 2.537-.945 4.86-2.975 7.31-1.816 2.19-4.426 4.414-7.448 6.99a344.8 344.8 0 0 0-3.418 2.94 1.76 1.76 0 0 1-1.159.435zM8.38 2.756c-1.82 0-3.492.726-4.708 2.045-1.235 1.34-1.915 3.19-1.915 5.213 0 2.134.793 4.043 2.571 6.188 1.72 2.074 4.275 4.252 7.235 6.775l.006.005a351.56 351.56 0 0 1 3.428 2.949c1.229-1.07 2.404-2.071 3.44-2.955 2.96-2.522 5.516-4.7 7.235-6.774 1.778-2.146 2.57-4.054 2.57-6.188 0-2.022-.68-3.873-1.914-5.213-1.216-1.319-2.888-2.045-4.709-2.045-1.333 0-2.557.424-3.638 1.26-.964.745-1.635 1.687-2.028 2.346a1.1 1.1 0 0 1-.953.541 1.1 1.1 0 0 1-.953-.541c-.393-.66-1.064-1.601-2.028-2.347-1.08-.835-2.305-1.26-3.638-1.26z" fill="#979797"/></svg>
